latex_in_markdown/.watch-latex-md-images/7b62b3f1ca6c1ec6d8f17ca446ec7f64.svg

<ns0:svg xmlns:ns0="http://www.w3.org/2000/svg" xmlns:ns1="http://www.w3.org/1999/xlink" height="11.5564pt" version="1.1" viewBox="23.686 63.6225 43.7165 11.5564" width="43.7165pt" watch_lated_md:baseline="0.45909999999999584" xmlns:watch_lated_md="https://github.com/Quansight/pearu-sandbox/latex_in_markdown/">
<ns0:defs>
<ns0:path d="m11.345 -8.38392c0.309878 -0.137724 0.344309 -0.258232 0.344309 -0.361524c0 -0.18937 -0.137724 -0.327093 -0.327093 -0.327093c-0.0344309 0 -0.0516463 0.0172154 -0.292662 0.120508l-9.31355 4.28664c-0.309878 0.137724 -0.344309 0.258232 -0.344309 0.361524c0 0.120508 0.0172154 0.223801 0.344309 0.37874l9.31355 4.28664c0.223801 0.103293 0.258232 0.120508 0.292662 0.120508c0.18937 0 0.327093 -0.137724 0.327093 -0.327093c0 -0.103293 -0.0344309 -0.223801 -0.344309 -0.361524l-8.86595 -4.08006l8.86595 -4.09727z" id="g0-60" />
<ns0:path d="m5.18185 -2.04864c-0.0860772 0.292662 -0.0860772 0.327093 -0.327093 0.654187c-0.37874 0.482032 -1.13622 1.2223 -1.94534 1.2223c-0.705833 0 -1.10179 -0.636971 -1.10179 -1.65268c0 -0.946849 0.533679 -2.87498 0.860772 -3.59803c0.585325 -1.20508 1.39445 -1.82484 2.06585 -1.82484c1.13622 0 1.36002 1.41167 1.36002 1.54939c0 0.0172154 -0.0516463 0.241016 -0.0688618 0.275447l-0.843557 3.37423zm1.10179 -4.40715c-0.18937 -0.447601 -0.654187 -1.13622 -1.54939 -1.13622c-1.94534 0 -4.04563 2.51345 -4.04563 5.06134c0 1.70433 0.998496 2.70282 2.16915 2.70282c0.946849 0 1.75597 -0.740264 2.23801 -1.30837c0.172154 1.01571 0.98128 1.30837 1.49774 1.30837s0.929634 -0.309878 1.23951 -0.929634c0.275447 -0.585325 0.516463 -1.63547 0.516463 -1.70433c0 -0.0860772 -0.0688618 -0.154939 -0.172154 -0.154939c-0.154939 0 -0.172154 0.0860772 -0.241016 0.344309c-0.258232 1.01571 -0.585325 2.10028 -1.29116 2.10028c-0.499248 0 -0.533679 -0.447601 -0.533679 -0.79191c0 -0.395955 0.0516463 -0.585325 0.206585 -1.25673c0.120508 -0.430386 0.206585 -0.809126 0.344309 -1.30837c0.636971 -2.58232 0.79191 -3.20207 0.79191 -3.30536c0 -0.241016 -0.18937 -0.430386 -0.447601 -0.430386c-0.550894 0 -0.688618 0.60254 -0.723049 0.809126z" id="g0-97" />
<ns0:path d="m2.85776 -0.705833c0 -0.430386 -0.344309 -0.705833 -0.705833 -0.705833c-0.344309 0 -0.705833 0.275447 -0.705833 0.705833s0.344309 0.705833 0.705833 0.705833c0.344309 0 0.705833 -0.275447 0.705833 -0.705833z" id="g1-46" />
<ns0:path d="m7.23049 -5.52616c0 -1.05014 -0.0172154 -2.84055 -0.740264 -4.21778c-0.636971 -1.20508 -1.65268 -1.63547 -2.54789 -1.63547c-0.826341 0 -1.87648 0.37874 -2.53067 1.61825c-0.688618 1.29116 -0.757479 2.89219 -0.757479 4.235c0 0.98128 0.0172154 2.47902 0.550894 3.7874c0.740264 1.77319 2.06585 2.01421 2.73726 2.01421c0.79191 0 1.99699 -0.327093 2.70282 -1.96256c0.516463 -1.18787 0.585325 -2.58232 0.585325 -3.83904zm-3.28815 5.52616c-1.10179 0 -1.75597 -0.946849 -1.99699 -2.25522c-0.18937 -1.01571 -0.18937 -2.49624 -0.18937 -3.4603c0 -1.32559 0 -2.42738 0.223801 -3.47752c0.327093 -1.46331 1.29116 -1.91091 1.96256 -1.91091c0.705833 0 1.61825 0.464817 1.94534 1.87648c0.223801 0.98128 0.241016 2.13471 0.241016 3.51195c0 1.119 0 2.49624 -0.206585 3.51195c-0.361524 1.87648 -1.37724 2.20358 -1.97978 2.20358z" id="g1-48" />
</ns0:defs>
<ns0:g id="page1">
<ns0:use x="27.9837" ns1:href="#g0-97" y="74.7198" />
<ns0:use x="41.6144" ns1:href="#g0-60" y="74.7198" />
<ns0:use x="59.5071" ns1:href="#g1-48" y="74.7198" />
</ns0:g>
</ns0:svg>

<ns0:svg xmlns:ns0="http://www.w3.org/2000/svg" xmlns:ns1="http://www.w3.org/1999/xlink" height="11.5564pt" version="1.1" viewBox="23.686 63.6225 43.7165 11.5564" width="43.7165pt" watch_lated_md:baseline="0.45909999999999584" xmlns:watch_lated_md="https://github.com/Quansight/pearu-sandbox/latex_in_markdown/">
<ns0:defs>
<ns0:path d="M11.345 -8.38392C11.6549 -8.52164 11.6893 -8.64215 11.6893 -8.74544C11.6893 -8.93481 11.5516 -9.07254 11.3622 -9.07254C11.3278 -9.07254 11.3105 -9.05532 11.0695 -8.95203L1.75597 -4.66538C1.4461 -4.52766 1.41167 -4.40715 1.41167 -4.30386C1.41167 -4.18335 1.42888 -4.08006 1.75597 -3.92512L11.0695 0.361524C11.2933 0.464817 11.3278 0.482032 11.3622 0.482032C11.5516 0.482032 11.6893 0.344309 11.6893 0.154939C11.6893 0.0516463 11.6549 -0.0688618 11.345 -0.206585L2.47902 -4.28664L11.345 -8.38392Z" id="g0-60" />
<ns0:path d="M5.18185 -2.04864C5.09577 -1.75597 5.09577 -1.72154 4.85475 -1.39445C4.47601 -0.912418 3.71854 -0.172154 2.90941 -0.172154C2.20358 -0.172154 1.80762 -0.809126 1.80762 -1.82484C1.80762 -2.77169 2.3413 -4.69982 2.66839 -5.42286C3.25372 -6.62794 4.06284 -7.2477 4.73425 -7.2477C5.87047 -7.2477 6.09427 -5.83603 6.09427 -5.69831C6.09427 -5.6811 6.04262 -5.45729 6.0254 -5.42286L5.18185 -2.04864ZM6.28364 -6.45579C6.09427 -6.90339 5.62945 -7.59201 4.73425 -7.59201C2.7889 -7.59201 0.688618 -5.07856 0.688618 -2.53067C0.688618 -0.826341 1.68711 0.172154 2.85776 0.172154C3.80461 0.172154 4.61374 -0.56811 5.09577 -1.13622C5.26792 -0.120508 6.07705 0.172154 6.59351 0.172154S7.52315 -0.137724 7.83303 -0.757479C8.10847 -1.3428 8.34949 -2.39295 8.34949 -2.46181C8.34949 -2.54789 8.28063 -2.61675 8.17733 -2.61675C8.0224 -2.61675 8.00518 -2.53067 7.93632 -2.27244C7.67809 -1.25673 7.35099 -0.172154 6.64516 -0.172154C6.14591 -0.172154 6.11148 -0.619756 6.11148 -0.964065C6.11148 -1.36002 6.16313 -1.54939 6.31807 -2.22079C6.43857 -2.65118 6.52465 -3.02992 6.66238 -3.52917C7.29935 -6.11148 7.45429 -6.73124 7.45429 -6.83453C7.45429 -7.07555 7.26492 -7.26492 7.00668 -7.26492C6.45579 -7.26492 6.31807 -6.66238 6.28364 -6.45579Z" id="g0-97" />
<ns0:path d="M2.85776 -0.705833C2.85776 -1.13622 2.51345 -1.41167 2.15193 -1.41167C1.80762 -1.41167 1.4461 -1.13622 1.4461 -0.705833S1.79041 0 2.15193 0C2.49624 0 2.85776 -0.275447 2.85776 -0.705833Z" id="g1-46" />
<ns0:path d="M7.23049 -5.52616C7.23049 -6.5763 7.21327 -8.3667 6.49022 -9.74394C5.85325 -10.949 4.83754 -11.3794 3.94234 -11.3794C3.11599 -11.3794 2.06585 -11.0007 1.41167 -9.76115C0.723049 -8.47 0.654187 -6.86896 0.654187 -5.52616C0.654187 -4.54488 0.671402 -3.04713 1.20508 -1.73876C1.94534 0.0344309 3.27093 0.275447 3.94234 0.275447C4.73425 0.275447 5.93933 -0.0516463 6.64516 -1.68711C7.16162 -2.87498 7.23049 -4.26943 7.23049 -5.52616ZM3.94234 0C2.84055 0 2.18636 -0.946849 1.94534 -2.25522C1.75597 -3.27093 1.75597 -4.75146 1.75597 -5.71553C1.75597 -7.04112 1.75597 -8.1429 1.97978 -9.19305C2.30687 -10.6564 3.27093 -11.104 3.94234 -11.104C4.64817 -11.104 5.56059 -10.6391 5.88768 -9.22748C6.11148 -8.2462 6.1287 -7.09276 6.1287 -5.71553C6.1287 -4.59652 6.1287 -3.21929 5.92211 -2.20358C5.56059 -0.327093 4.54488 0 3.94234 0Z" id="g1-48" />
</ns0:defs>
<ns0:g id="page1">
<ns0:use x="27.9837" ns1:href="#g0-97" y="74.7198" />
<ns0:use x="41.6144" ns1:href="#g0-60" y="74.7198" />
<ns0:use x="59.5071" ns1:href="#g1-48" y="74.7198" />
</ns0:g>
</ns0:svg>
